packages/icons/src/car-spark.svg

<svg width="24" height="24" viewBox="0 0 24 24" fill="none" xmlns="http://www.w3.org/2000/svg">
<path fill-rule="evenodd" clip-rule="evenodd" d="M18 20C21.3137 20 24 17.3137 24 14C24 10.6863 21.3137 8 18 8C14.6863 8 12 10.6863 12 14C12 17.3137 14.6863 20 18 20ZM19.2541 15.2496L17.9986 18L16.7294 15.2496L14 13.993L16.7294 12.7365L17.9986 10L19.2541 12.7365L21.9972 13.993L19.2541 15.2496Z" fill="black"/>
<path fill-rule="evenodd" clip-rule="evenodd" d="M19.0944 6.28639C18.7657 4.94408 17.5625 4 16.1805 4H7.87835C6.51315 4 5.32011 4.92174 4.9755 6.24273L4.46153 8.21296L4.42238 8.33195L4.38679 8.4071C3.65444 8.29425 2.92398 8.16503 2.19594 8.01942L1.80371 9.98058C2.23036 10.0659 2.65781 10.1458 3.08597 10.2203L2.988 10.3603C2.34454 11.3379 1.99983 12.4844 1.99983 13.659V21H4.99071C4.99143 19.8956 5.88678 19.0005 6.99117 19L12.4095 18.9997C11.222 17.6729 10.5 15.9208 10.5 14C10.5 12.0782 11.2228 10.3252 12.4114 8.99811C10.4381 9.01563 8.46391 8.91133 6.49983 8.68523L6.99312 6.75003L7.03056 6.63299C7.17721 6.25476 7.53654 6 7.9424 6H16.0872L16.1989 6.00647C16.5358 6.04574 16.8275 6.26075 16.9721 6.56985C17.3082 6.5238 17.6513 6.5 18 6.5C18.3976 6.5 18.7879 6.53093 19.1688 6.59053L19.0944 6.28639ZM5.99983 13H8.99983V15H5.99983V13Z" fill="black"/>
</svg>

<svg xmlns="http://www.w3.org/2000/svg" width="24" height="24" fill="none" viewBox="0 0 24 24">
  <path fill="#000" fill-rule="evenodd" d="M18 20a6 6 0 1 0 0-12 6 6 0 0 0 0 12Zm1.254-4.75L18 18l-1.27-2.75L14 13.993l2.73-1.257L17.998 10l1.255 2.736 2.743 1.257-2.743 1.257Z" clip-rule="evenodd"/>
  <path fill="#000" fill-rule="evenodd" d="M19.094 6.286A3 3 0 0 0 16.18 4H7.878a3 3 0 0 0-2.902 2.243l-.514 1.97-.04.119-.035.075a49.992 49.992 0 0 1-2.191-.388l-.392 1.962c.426.085.854.165 1.282.24l-.098.14A6 6 0 0 0 2 13.658V21h2.99c.001-1.104.897-2 2.001-2h5.418a7.472 7.472 0 0 1-1.909-5c0-1.922.723-3.675 1.911-5.002A47.967 47.967 0 0 1 6.5 8.685l.493-1.935.038-.117A.982.982 0 0 1 7.942 6h8.145l.112.006c.337.04.628.255.773.564a7.569 7.569 0 0 1 2.197.02l-.075-.304ZM6 13h3v2H6v-2Z" clip-rule="evenodd"/>
</svg>
